src/img/social/instagram.svg

<svg height="24" viewBox="0 0 24 24" width="24" xmlns="http://www.w3.org/2000/svg"><g fill="#fff"><path d="m12 2.162c3.204 0 3.584.012 4.849.07 1.366.062 2.633.336 3.608 1.311s1.249 2.242 1.311 3.608c.058 1.265.07 1.645.07 4.849s-.012 3.584-.07 4.849c-.062 1.366-.336 2.633-1.311 3.608s-2.242 1.249-3.608 1.311c-1.265.058-1.645.07-4.849.07s-3.584-.012-4.849-.07c-1.366-.062-2.633-.336-3.608-1.311s-1.249-2.242-1.311-3.608c-.058-1.265-.07-1.645-.07-4.849s.012-3.584.07-4.849c.062-1.366.336-2.633 1.311-3.608s2.242-1.249 3.608-1.311c1.265-.058 1.645-.07 4.849-.07m0-2.162c-3.259 0-3.668.014-4.948.072-1.95.089-3.663.567-5.038 1.942-1.375 1.375-1.853 3.088-1.942 5.038-.058 1.28-.072 1.689-.072 4.948s.014 3.668.072 4.948c.089 1.95.567 3.663 1.942 5.038s3.088 1.853 5.038 1.942c1.28.058 1.689.072 4.948.072s3.668-.014 4.948-.072c1.95-.089 3.663-.567 5.038-1.942s1.853-3.088 1.942-5.038c.058-1.28.072-1.689.072-4.948s-.014-3.668-.072-4.948c-.089-1.95-.567-3.663-1.942-5.038s-3.088-1.853-5.038-1.942c-1.28-.058-1.689-.072-4.948-.072z"/><path d="m12 5.838c-3.403 0-6.162 2.759-6.162 6.162s2.759 6.162 6.162 6.162 6.162-2.759 6.162-6.162-2.759-6.162-6.162-6.162zm0 10.162c-2.209 0-4-1.791-4-4s1.791-4 4-4 4 1.791 4 4-1.791 4-4 4z"/><circle cx="18.406" cy="5.594" r="1.44"/></g></svg>

<svg xmlns="http://www.w3.org/2000/svg" xmlns:xlink="http://www.w3.org/1999/xlink" x="0px" y="0px" width="24px" height="24px" viewBox="0 0 24 24"><g transform="translate(0, 0)"><path fill="#ffffff" d="M12,2.162c3.204,0,3.584,0.012,4.849,0.07c1.366,0.062,2.633,0.336,3.608,1.311
	c0.975,0.975,1.249,2.242,1.311,3.608c0.058,1.265,0.07,1.645,0.07,4.849s-0.012,3.584-0.07,4.849
	c-0.062,1.366-0.336,2.633-1.311,3.608c-0.975,0.975-2.242,1.249-3.608,1.311c-1.265,0.058-1.645,0.07-4.849,0.07
	s-3.584-0.012-4.849-0.07c-1.366-0.062-2.633-0.336-3.608-1.311c-0.975-0.975-1.249-2.242-1.311-3.608
	c-0.058-1.265-0.07-1.645-0.07-4.849s0.012-3.584,0.07-4.849c0.062-1.366,0.336-2.633,1.311-3.608
	c0.975-0.975,2.242-1.249,3.608-1.311C8.416,2.174,8.796,2.162,12,2.162 M12,0C8.741,0,8.332,0.014,7.052,0.072
	c-1.95,0.089-3.663,0.567-5.038,1.942C0.639,3.389,0.161,5.102,0.072,7.052C0.014,8.332,0,8.741,0,12
	c0,3.259,0.014,3.668,0.072,4.948c0.089,1.95,0.567,3.663,1.942,5.038c1.375,1.375,3.088,1.853,5.038,1.942
	C8.332,23.986,8.741,24,12,24s3.668-0.014,4.948-0.072c1.95-0.089,3.663-0.567,5.038-1.942c1.375-1.375,1.853-3.088,1.942-5.038
	C23.986,15.668,24,15.259,24,12s-0.014-3.668-0.072-4.948c-0.089-1.95-0.567-3.663-1.942-5.038
	c-1.375-1.375-3.088-1.853-5.038-1.942C15.668,0.014,15.259,0,12,0L12,0z"></path>
<path data-color="color-2" fill="#ffffff" d="M12,5.838c-3.403,0-6.162,2.759-6.162,6.162S8.597,18.162,12,18.162s6.162-2.759,6.162-6.162
	S15.403,5.838,12,5.838z M12,16c-2.209,0-4-1.791-4-4s1.791-4,4-4s4,1.791,4,4S14.209,16,12,16z"></path>
<circle data-color="color-2" fill="#ffffff" cx="18.406" cy="5.594" r="1.44"></circle></g></svg>
